source/img/services/services-nav/video-icon.svg

<svg width="33" height="33" viewBox="0 0 33 33" fill="none" xmlns="http://www.w3.org/2000/svg">
<path d="M25.6489 23.8672V19.7251L29.8298 17.95V25.6424L25.6489 23.8672Z" fill="#AAAAAA"/>
<ellipse cx="18.812" cy="10.8488" rx="5.05371" ry="5.02966" fill="#AAAAAA"/>
<path fill-rule="evenodd" clip-rule="evenodd" d="M14.2816 10.7892C14.2816 8.23909 16.3592 6.16899 18.9255 6.16899C20.2791 6.16899 21.4968 6.74468 22.3459 7.66391C22.477 7.80591 22.6984 7.81469 22.8404 7.68353C22.9824 7.55237 22.9912 7.33094 22.8601 7.18895C21.8836 6.13186 20.4819 5.46899 18.9255 5.46899C16.0209 5.46899 13.655 7.77699 13.5832 10.6545C12.9487 9.40826 11.6495 8.55491 10.1516 8.55491C8.02964 8.55491 6.30659 10.2674 6.30659 12.3833C6.30659 13.719 6.99326 14.894 8.03347 15.5788H5.24551C4.49992 15.5788 3.89551 16.1833 3.89551 16.9288V22.9548C3.89551 23.1481 4.05221 23.3048 4.24551 23.3048C4.43881 23.3048 4.59551 23.1481 4.59551 22.9548V16.9288C4.59551 16.5699 4.88652 16.2788 5.24551 16.2788H24.2981C24.6571 16.2788 24.9481 16.5699 24.9481 16.9288V26.5922C24.9481 26.9511 24.6571 27.2422 24.2981 27.2422H5.24551C4.88652 27.2422 4.59551 26.9511 4.59551 26.5922V24.8911C4.59551 24.6978 4.43881 24.5411 4.24551 24.5411C4.05221 24.5411 3.89551 24.6978 3.89551 24.8911V26.5922C3.89551 27.3377 4.49992 27.9422 5.24551 27.9422H24.2981C25.0437 27.9422 25.6481 27.3377 25.6481 26.5922V24.1617L29.1606 25.8954C29.7255 26.1743 30.3869 25.7632 30.3869 25.1332V18.3459C30.3869 17.716 29.7255 17.3049 29.1606 17.5837L25.6481 19.3175V16.9288C25.6481 16.1833 25.0437 15.5788 24.2981 15.5788H21.2545C23.0386 14.7175 24.2695 12.8971 24.2695 10.7892C24.2695 10.5959 24.1128 10.4392 23.9195 10.4392C23.7262 10.4392 23.5695 10.5959 23.5695 10.7892C23.5695 13.3393 21.4919 15.4094 18.9255 15.4094C16.3592 15.4094 14.2816 13.3393 14.2816 10.7892ZM16.5966 15.5788C15.4134 15.0076 14.4735 14.0146 13.9746 12.7956C13.8495 13.9588 13.2015 14.9654 12.2697 15.5788H16.5966ZM10.1516 9.25491C8.41309 9.25491 7.00659 10.6571 7.00659 12.3833C7.00659 14.1095 8.41309 15.5117 10.1516 15.5117C11.8901 15.5117 13.2966 14.1095 13.2966 12.3833C13.2966 10.6571 11.8901 9.25491 10.1516 9.25491ZM29.6869 18.3459C29.6869 18.2347 29.5702 18.1622 29.4705 18.2114L25.8908 19.9783C25.8396 20.0036 25.8072 20.0557 25.8072 20.1128V23.3663C25.8072 23.4234 25.8396 23.4756 25.8908 23.5008L29.4705 25.2677C29.5702 25.3169 29.6869 25.2444 29.6869 25.1332V18.3459ZM6.99247 25.6556C6.79917 25.6556 6.64247 25.8123 6.64247 26.0056C6.64247 26.1989 6.79917 26.3556 6.99247 26.3556H8.82313C9.01643 26.3556 9.17313 26.1989 9.17313 26.0056C9.17313 25.8123 9.01643 25.6556 8.82313 25.6556H6.99247ZM11.5691 25.6556C11.3758 25.6556 11.2191 25.8123 11.2191 26.0056C11.2191 26.1989 11.3758 26.3556 11.5691 26.3556H13.3998C13.5931 26.3556 13.7498 26.1989 13.7498 26.0056C13.7498 25.8123 13.5931 25.6556 13.3998 25.6556H11.5691ZM16.1458 25.6556C15.9525 25.6556 15.7958 25.8123 15.7958 26.0056C15.7958 26.1989 15.9525 26.3556 16.1458 26.3556H17.9764C18.1697 26.3556 18.3264 26.1989 18.3264 26.0056C18.3264 25.8123 18.1697 25.6556 17.9764 25.6556H16.1458ZM20.7224 25.6556C20.5291 25.6556 20.3724 25.8123 20.3724 26.0056C20.3724 26.1989 20.5291 26.3556 20.7224 26.3556H22.5531C22.7464 26.3556 22.9031 26.1989 22.9031 26.0056C22.9031 25.8123 22.7464 25.6556 22.5531 25.6556H20.7224Z" fill="#0A3D76"/>
<ellipse cx="10.1652" cy="12.3553" rx="3.19448" ry="3.17926" fill="#AAAAAA"/>
</svg>

<svg width="33" height="33" fill="none" xmlns="http://www.w3.org/2000/svg"><path d="M25.649 23.867v-4.142l4.18-1.775v7.692l-4.18-1.775z" fill="#AAA"/><ellipse cx="18.812" cy="10.849" rx="5.054" ry="5.03" fill="#AAA"/><path fill-rule="evenodd" clip-rule="evenodd" d="M14.282 10.79c0-2.55 2.077-4.621 4.643-4.621a4.64 4.64 0 013.42 1.495.35.35 0 10.515-.475 5.342 5.342 0 00-3.934-1.72c-2.905 0-5.271 2.308-5.343 5.186a3.847 3.847 0 00-3.431-2.1 3.837 3.837 0 00-3.845 3.828 3.82 3.82 0 001.726 3.196H5.246a1.35 1.35 0 00-1.35 1.35v6.026a.35.35 0 10.7 0v-6.026a.65.65 0 01.65-.65h19.052a.65.65 0 01.65.65v9.663a.65.65 0 01-.65.65H5.246a.65.65 0 01-.65-.65v-1.7a.35.35 0 10-.7 0v1.7c0 .746.604 1.35 1.35 1.35h19.052a1.35 1.35 0 001.35-1.35v-2.43l3.513 1.733a.85.85 0 001.226-.762v-6.787a.85.85 0 00-1.226-.762l-3.513 1.733V16.93a1.35 1.35 0 00-1.35-1.35h-3.043a5.318 5.318 0 003.015-4.79.35.35 0 10-.7 0c0 2.55-2.078 4.62-4.645 4.62-2.566 0-4.643-2.07-4.643-4.62zm2.315 4.789a5.349 5.349 0 01-2.622-2.783 3.824 3.824 0 01-1.705 2.783h4.327zm-6.445-6.324a3.137 3.137 0 00-3.145 3.128 3.137 3.137 0 003.145 3.129 3.137 3.137 0 003.145-3.129 3.137 3.137 0 00-3.145-3.128zm19.535 9.09a.15.15 0 00-.216-.134l-3.58 1.767a.15.15 0 00-.084.135v3.253c0 .057.033.11.084.135l3.58 1.767a.15.15 0 00.216-.135v-6.787zm-22.695 7.31a.35.35 0 100 .7h1.831a.35.35 0 100-.7h-1.83zm4.577 0a.35.35 0 100 .7h1.83a.35.35 0 100-.7h-1.83zm4.577 0a.35.35 0 100 .7h1.83a.35.35 0 100-.7h-1.83zm4.576 0a.35.35 0 100 .7h1.831a.35.35 0 100-.7h-1.83z" fill="#0A3D76"/><ellipse cx="10.165" cy="12.355" rx="3.194" ry="3.179" fill="#AAA"/></svg>
